X:40
T:Gan Ainm
S:John Walsh <walsh@MATH.UBC.CA>, irtrad-l, 4/94
M:C|
K:G
GA|B2dB ABBA|GEDE GABd|e2 af gedB|GABG A2 GA |BddB ABBA|GEDE GABd|bgaf
gedB|GBAF G2:|
GA|~B3e dB~B2 |gfgb abge|d2 Bd gedB|GABG A2 GA|~B3e dB~B2|gfgb abge|dGBd
gedB|GBAF G2:|
